X: 331
T: Whiskey before Breakfast
B: canberra pickers and fiddlers
B: good tune book
B: songs
B: traditional songs
B: tunes
M:4/4
L:1/8
Q: 1/4=100
K:D
V:1 
"D"""A,B,D(E D2) D(E|FA)BF A(FED)|"G"G2 [GB]G "D"F2 AF|"A7"EDE(F ED)B,G,|
"D"A,B,D(E D2) D(E|FA)BF A(FED)|"G"GAB(c "D"dB)GB|"A"AGF(E "D"D4):|
|:"D"B d2 (B d4)|(ef)ed c(B A2)|"Em"c e2 (c e2) (ef)|"A7"gfed c(B (3ABc)|
"D"d2 fd "A"c2 ec|"G"BAB(c "D"BA)FD|"G"G2 BG "D"F2 AF|"A7"EDE(F "D"D4):|]
W: Early one day the sun wouldn't shine
W: I was walking down the street not feeling too fine
W: I saw two old men with a bottle between 'em
W: And this was the song that I heard them singing
W: 
W: Lord preserve us and protect us,
W: We've been drinking whiskey 'fore breakfast
W: 
W: Well I stopped by the steps where they was sitting
W: And I couldn't believe how drunk they were getting
W: I said "old men, have you been drinking long?"
W: They said "just long enough to be singing this song"
W: 
W: Lord preserve us and protect us,
W: We've been drinking whiskey 'fore breakfast
W: 
W: Well they passed me the bottle and I took a little sip
W: And it felt so good I just couldn't quit
W: I drank some more and next thing I knew
W: There were three of us sitting there singing this tune
W: 
W: Lord preserve us and protect us,
W: We've been drinking whiskey 'fore breakfast
W: 
W: One by one everybody in the town
W: They heard our ruckus and they all came down
W: And pretty soon all the streets were ringing
W: With the sound of the whole town laughing and singing
W: 
W: Lord preserve us and protect us,
W: We've been drinking whiskey 'fore breakfast
W: 
W: Lord preserve us and protect us,
W: We've been drinking whiskey 'fore breakfast
% abcbook-tune_id 63ae8f1ceb69dc05f43b53fc
% abcbook-tune_composer_id 
% abcbook-link-0 https://www.youtube.com/watch?v=O3maOvSbO9g
% abcbook-link-end-at-0 114
% abcbook-boost 0
% abcbook-difficulty 0
% abcbook-tags bega session,canberra pickers and fiddlers,good tune book,incoming traditional songs,old time tunes,ralph cullen,ss3,steve ryan,steve set,© free
% abcbook-tablature 
% abcbook-transpose 
% abcbook-tuning ADAE
% abcbook-lastupdated 1692423903266
% abcbook-src-url https://tunebook.net/scrape/traditional%20songs.abc
% abcbook-soundfonts 
% abcbook-repeats 1


